X:1
T:Anonymus ~1540
T:Vitrum nostrum gloriosum
%%score [ 1 2 3 4 ]
L:1/8
Q:1/4=240
M:2/2
K:C
V:1 treble nm="Cantus" snm="Cantus"
V:2 treble nm="Altus" snm="Altus"
V:3 treble nm="Tenor" snm="Tenor"
V:4 treble nm="Bassus" snm="Bassus"
V:1
"^C""^Q""^;" x8 ||[M:2/2][Q:1/4=480][Q:1/4=480][Q:1/4=480][Q:1/4=480] z16 | z16 | z16 | z24 || %5
w: |||||
[K:F][Q:1/4=240][Q:1/4=240][Q:1/4=240][Q:1/4=240] G8 A8 | G4 F2 E2 D4 G8 | ^F4 !fermata!x8 x4 | %8
w: De- o|gra * * * tis-|si-|
[M:2/2][Q:1/4=480][Q:1/4=480][Q:1/4=480][Q:1/4=480] z48 | %9
w: |
[Q:1/4=240][Q:1/4=240][Q:1/4=240][Q:1/4=240] D16 |"^-" x16- | x16 | !fermata!D16 | G8 G8 | %14
w: Le-|va-||te!|Fac, fac,|
 F4 F4 G4 G4 | F8 G4 G4 | F4 F4 G4 G2 G2 | F8 G8 | B8 A8 | A4 A4 B4 A4 | A4 G4 A4 B4 | %21
w: bi- be to- tum|ex- tra, ut|ni- hil ma- ne- at|in- tra,|fac, *|bi- be to- tum|ex- * tra, ut|
 G4 G4 F4 G2 G2 | G8 F8 | F16 | F16 | D16 |"^-" x16 || %27
w: ni- hil ma- ne- at|in- tra.|De-|po-|||
[M:4/2][Q:1/4=480][Q:1/4=480][Q:1/4=480][Q:1/4=480] z88 | %28
w: |
[Q:1/4=240][Q:1/4=240][Q:1/4=240][Q:1/4=240] G8 G8 | G8 G8 | F8 G8 | G8 E16 | E8 E8 | D8 E16 | %34
w: Pro- se-|qua- mur|lau- *|de, pro-|se- qua-|mur lau-|
"^-" x16 |] x16 |] %36
w: ||
V:2
"^C""^Q""^;" x8 ||[M:2/2] z16 | z16 | z16 | z24 ||[K:F] D8 D8 | D8 D8 x4 | D8 !fermata!x8 | %8
w: |||||De- o|gra- tis-|si-|
[M:2/2] z48 | A,16 | A,16 | B,16 | !fermata!B,16 | D8 D8 | D4 D4 D4 D4 | D8 D4 D4 | %16
w: |Le-|va-||te!|Fac, fac,|bi- be to- tum|ex- tra, ut|
 D4 D4 D4 D2 D2 | D8 D8 | D8 F8 | F4 F4 F4 F4 | D8 D4 D4 | D4 D4 D4 D2 D2 | D8 D8 | A,16 | A,16 | %25
w: ni- hil ma- ne- at|in- tra,|fac, *|bi- be to- tum|ex- tra, ut|ni- hil ma- ne- at|in- tra|De-|po-|
 B,16 |"^-" x16 ||[M:4/2] z88 | D8 D8 | D8 D8 | z4 D6 C2 B,2 A,2 | B,8 C8 x8 | C8 C8 | C8 B,8 x8 | %34
w: |||Pro- se-|qua- mur|lau- * * *|* de,|pro- se-|qua- mur|
 C16 |]"^-" x16 |] %36
w: lau-||
V:3
"^C""^Q""^;" x8 ||[K:F][K:treble-8] G8 G8 | G8 F8 | G8 B8 | A8 !fermata!G16 || G8 F8 | G8 B8 x4 | %7
w: |Vi- trum|no- strum|glo- ri-|o- sum,|De- o|gra- tis-|
 A8 !fermata!x8 | G8 d8 c8 B8 !fermata!A16 | D16 | F16 | G16 | !fermata!G16 | G8 G8 | A4 A4 G4 G4 | %15
w: si-|O * vi- * trum!|Le-|va-||te!|Fac, fac,|bi- be to- tum|
 A8 G4 G4 | A4 A4 G4 G2 G2 | A8 G8 | G8 d8 | c4 c4 d4 A4 | B8 A4 G4 | B4 B4 A4 G2 G2 | B8 A8 | %23
w: ex- tra, ut|ni- hil ma- ne- at|in- tra,|fac, *|bi- be to- tum|ex- tra, ut|ni- hil ma- ne- at|in- tra|
 D16 | F16 | G16 |"^-" x16 || G8 G8 G8 G8 G8 F8 G8 A8 F8"^-" x16 | B8 B8 | B8 B8 | A8 B8 | %31
w: De-|po-|||Hoc est in vis- ce- ri- bus * me-|Pro- se-|qua- mur|lau- *|
"^-" x16- x8 | x16 | x16 x8 | x16 |] x16 |] %36
w: de!|||||
V:4
"^Q""^;" x8 ||[M:2/2] z16 | z16 | z16 | z24 ||[K:F][K:bass] G,8 D,8 | G,,8 G,8 x4 | %7
w: |||||De- o|gra- tis-|
 D,8 !fermata!x8 |[M:2/2] z48 | D,16 | D,16 | G,,16 | !fermata!G,,16 | G,,8 G,,8 | %14
w: si-||Le-|va-||te!|Fac, fac,|
 D,4 D,4 G,,4 G,,4 | D,8 G,,4 G,,4 | D,4 D,4 G,,4 G,,2 G,,2 | D,8 G,,8 | G,8 D,8 | %19
w: bi- be to- tum|ex- tra, ut|ni- hil ma- ne- at|in- tra,|fac, *|
 F,4 F,4 B,,4 F,4 | G,8 D,4 G,,4 | G,4 G,4 D,4 G,,2 G,,2 | G,8 D,8 | D,16 | D,16 | G,,16 | %26
w: bi- be to- tum|ex- tra, ut|ni- hil ma- ne- at|in- tra|De-|po-||
"^-" x16 ||[M:4/2] z88 | G,,8 G,,8 | G,,8 G,,8 | D,8 G,,8 | G,,8 C,16 | C,8 C,8 | G,,8 C,16 | %34
w: ||Pro- se-|qua- mur|lau- *|de, pro-|se- qua-|mur lau-|
"^-" x16 |] x16 |] %36
w: ||

